res/skins/LateNight/palemoon/buttons/btn_embedded_library_header.svg

<svg width="23" height="22" version="1.1" xmlns="http://www.w3.org/2000/svg">
  <path d="m-0.199219-1c-0.434551 0-0.800781 0.36623-0.800781 0.800781v22.3984c0 0.434551 0.36623 0.800781 0.800781 0.800781h22.3984c0.434551 0 0.800781-0.36623 0.800781-0.800781v-22.3984c0-0.434551-0.36623-0.800781-0.800781-0.800781zm1.19922 1h20c0.562649 0 1 0.437351 1 1v20c0 0.562649-0.437351 1-1 1h-20c-0.562649 0-1-0.437351-1-1v-20c0-0.562649 0.437351-1 1-1z" color="#000000" color-rendering="auto" dominant-baseline="auto" fill="#000001" image-rendering="auto" shape-rendering="auto" solid-color="#000000" style="font-feature-settings:normal;font-variant-alternates:normal;font-variant-caps:normal;font-variant-ligatures:normal;font-variant-numeric:normal;font-variant-position:normal;isolation:auto;mix-blend-mode:normal;paint-order:fill markers stroke;shape-padding:0;text-decoration-color:#000000;text-decoration-line:none;text-decoration-style:solid;text-indent:0;text-orientation:mixed;text-transform:none;white-space:normal"/>
  <path d="m1 0c-0.562649 0-1 0.437352-1 1v0.5h1.10742c0.150078-0.293496 0.446907-0.5 0.800781-0.5h18.1836c0.353874 0 0.650703 0.206504 0.800781 0.5h1.10742v-0.5c0-0.562648-0.437351-1-1-1z" color="#000000" color-rendering="auto" dominant-baseline="auto" fill="#dcdcdc" fill-opacity=".0705882" image-rendering="auto" shape-rendering="auto" solid-color="#000000" style="font-feature-settings:normal;font-variant-alternates:normal;font-variant-caps:normal;font-variant-ligatures:normal;font-variant-numeric:normal;font-variant-position:normal;isolation:auto;mix-blend-mode:normal;paint-order:fill markers stroke;shape-padding:0;text-decoration-color:#000000;text-decoration-line:none;text-decoration-style:solid;text-indent:0;text-orientation:mixed;text-transform:none;white-space:normal"/>
  <path d="m1 22c-0.562649 0-1-0.437352-1-1v-19.5h1v18.5918c0 0.503636 0.404567 0.908203 0.908203 0.908203h18.1836c0.503636 0 0.908203-0.404567 0.908203-0.908203v-18.5918h1v19.5c0 0.562648-0.437351 1-1 1z" color="#000000" color-rendering="auto" dominant-baseline="auto" fill="#d1d1d1" fill-opacity=".0196078" image-rendering="auto" shape-rendering="auto" solid-color="#000000" style="font-feature-settings:normal;font-variant-alternates:normal;font-variant-caps:normal;font-variant-ligatures:normal;font-variant-numeric:normal;font-variant-position:normal;isolation:auto;mix-blend-mode:normal;paint-order:fill markers stroke;shape-padding:0;text-decoration-color:#000000;text-decoration-line:none;text-decoration-style:solid;text-indent:0;text-orientation:mixed;text-transform:none;white-space:normal"/>
</svg>

<?xml version="1.0" encoding="UTF-8" standalone="no"?>
<svg
   xmlns:dc="http://purl.org/dc/elements/1.1/"
   xmlns:cc="http://creativecommons.org/ns#"
   xmlns:rdf="http://www.w3.org/1999/02/22-rdf-syntax-ns#"
   xmlns:svg="http://www.w3.org/2000/svg"
   xmlns="http://www.w3.org/2000/svg"
   width="23"
   height="22"
   version="1.1"
   id="svg17">
  <metadata
     id="metadata21">
    <rdf:RDF>
      <cc:Work
         rdf:about="">
        <dc:format>image/svg+xml</dc:format>
        <dc:type
           rdf:resource="http://purl.org/dc/dcmitype/StillImage" />
        <dc:title></dc:title>
      </cc:Work>
    </rdf:RDF>
  </metadata>
  <defs
     id="defs9">
    <linearGradient
       id="a"
       x1="2"
       x2="24"
       y1="12"
       y2="12"
       gradientTransform="matrix(0.95652174,0,0,0.95652174,-0.4348113,-22.521739)"
       gradientUnits="userSpaceOnUse">
      <stop
         stop-opacity=".0047619"
         offset="0"
         id="stop2" />
      <stop
         stop-opacity="0"
         offset=".5"
         id="stop4" />
      <stop
         stop-opacity=".47451"
         offset="1"
         id="stop6" />
    </linearGradient>
  </defs>
  <path
     style="color:#000000;font-style:normal;font-variant:normal;font-weight:normal;font-stretch:normal;font-size:medium;line-height:normal;font-family:sans-serif;font-variant-ligatures:normal;font-variant-position:normal;font-variant-caps:normal;font-variant-numeric:normal;font-variant-alternates:normal;font-feature-settings:normal;text-indent:0;text-align:start;text-decoration:none;text-decoration-line:none;text-decoration-style:solid;text-decoration-color:#000000;letter-spacing:normal;word-spacing:normal;text-transform:none;writing-mode:lr-tb;direction:ltr;text-orientation:mixed;dominant-baseline:auto;baseline-shift:baseline;text-anchor:start;white-space:normal;shape-padding:0;clip-rule:nonzero;display:inline;overflow:visible;visibility:visible;opacity:1;isolation:auto;mix-blend-mode:normal;color-interpolation:sRGB;color-interpolation-filters:linearRGB;solid-color:#000000;solid-opacity:1;vector-effect:none;fill:#000001;fill-opacity:1;fill-rule:nonzero;stroke:none;stroke-width:1;stroke-linecap:round;stroke-linejoin:round;stroke-miterlimit:4;stroke-dasharray:none;stroke-dashoffset:0;stroke-opacity:1;paint-order:fill markers stroke;color-rendering:auto;image-rendering:auto;shape-rendering:auto;text-rendering:auto;enable-background:accumulate"
     d="M -0.1992188,-1 C -0.6337701,-1 -1,-0.63377 -1,-0.199219 V 22.199219 C -1,22.63377 -0.63377,23 -0.1992188,23 H 22.199219 C 22.63377,23 23,22.63377 23,22.199219 V -0.199219 C 23,-0.63377 22.63377,-1 22.199219,-1 Z M 1,0 h 20 c 0.562649,0 1,0.437351 1,1 v 20 c 0,0.562649 -0.437351,1 -1,1 H 1 C 0.4373514,22 0,21.562649 0,21 V 1 C 0,0.437351 0.4373514,0 1,0 Z"
     id="rect15-9" />
  <path
     style="color:#000000;font-style:normal;font-variant:normal;font-weight:normal;font-stretch:normal;font-size:medium;line-height:normal;font-family:sans-serif;font-variant-ligatures:normal;font-variant-position:normal;font-variant-caps:normal;font-variant-numeric:normal;font-variant-alternates:normal;font-feature-settings:normal;text-indent:0;text-align:start;text-decoration:none;text-decoration-line:none;text-decoration-style:solid;text-decoration-color:#000000;letter-spacing:normal;word-spacing:normal;text-transform:none;writing-mode:lr-tb;direction:ltr;text-orientation:mixed;dominant-baseline:auto;baseline-shift:baseline;text-anchor:start;white-space:normal;shape-padding:0;clip-rule:nonzero;display:inline;overflow:visible;visibility:visible;opacity:1;isolation:auto;mix-blend-mode:normal;color-interpolation:sRGB;color-interpolation-filters:linearRGB;solid-color:#000000;solid-opacity:1;vector-effect:none;fill:#dcdcdc;fill-opacity:0.0705882;fill-rule:nonzero;stroke:none;stroke-width:1;stroke-linecap:round;stroke-linejoin:round;stroke-miterlimit:4;stroke-dasharray:none;stroke-dashoffset:0;stroke-opacity:1;paint-order:fill markers stroke;color-rendering:auto;image-rendering:auto;shape-rendering:auto;text-rendering:auto;enable-background:accumulate"
     d="M 1,0 C 0.4373514,0 0,0.437352 0,1 V 1.5 H 1.1074219 C 1.2574996,1.206504 1.5543285,1 1.9082031,1 H 20.091797 c 0.353874,0 0.650703,0.206504 0.800781,0.5 H 22 V 1 C 22,0.437352 21.562649,0 21,0 Z"
     id="rect15-3-7-1" />
  <path
     style="color:#000000;font-style:normal;font-variant:normal;font-weight:normal;font-stretch:normal;font-size:medium;line-height:normal;font-family:sans-serif;font-variant-ligatures:normal;font-variant-position:normal;font-variant-caps:normal;font-variant-numeric:normal;font-variant-alternates:normal;font-feature-settings:normal;text-indent:0;text-align:start;text-decoration:none;text-decoration-line:none;text-decoration-style:solid;text-decoration-color:#000000;letter-spacing:normal;word-spacing:normal;text-transform:none;writing-mode:lr-tb;direction:ltr;text-orientation:mixed;dominant-baseline:auto;baseline-shift:baseline;text-anchor:start;white-space:normal;shape-padding:0;clip-rule:nonzero;display:inline;overflow:visible;visibility:visible;opacity:1;isolation:auto;mix-blend-mode:normal;color-interpolation:sRGB;color-interpolation-filters:linearRGB;solid-color:#000000;solid-opacity:1;vector-effect:none;fill:#d1d1d1;fill-opacity:0.0196078;fill-rule:nonzero;stroke:none;stroke-width:1;stroke-linecap:round;stroke-linejoin:round;stroke-miterlimit:4;stroke-dasharray:none;stroke-dashoffset:0;stroke-opacity:1;paint-order:fill markers stroke;color-rendering:auto;image-rendering:auto;shape-rendering:auto;text-rendering:auto;enable-background:accumulate"
     d="M 1,22 C 0.4373514,22 0,21.562648 0,21 V 1.5 h 1 v 13.060547 5.53125 C 1,20.595433 1.4045667,21 1.9082031,21 H 20.091797 C 20.595433,21 21,20.595433 21,20.091797 V 14.560547 1.5 h 1 V 21 c 0,0.562648 -0.437351,1 -1,1 z"
     id="rect15-3-7-9" />
</svg>
